X:1
T:Title
%%score { 1 | ( 2 3 ) }
L:1/8
M:6/8
K:Db
V:1 treble nm="Grand Piano"
V:2 bass 
V:3 bass 
V:1
 z3 z2[Q:1/4=84] [DF]/[EG]/ | [FA]2 [FA] [FA][DF][FA] | [Fd]2 [Gd] [Fd]2 [FA] | c>BA G2 B | %4
[M:5/8] [FA]3 [DF]2 |[M:1/8] [DF]/[EG]/ |[M:3/4] [FA]2 [FA][FA] [DF][FA] | [Fd]2 [Gd] [Fd]2 [Fd] | %8
 [Ee][CA] [Fd] [Ec]2 [DB] |[M:5/8] [CA]-[CA]- [CA]3 |[M:1/8] A |[M:3/4] e2 dc Bc | %12
 [Fd]2 [GB] [FA]2 [FA] | c>B A G2 B | [FA]3 F2 F/E/ | D2 B A2 F/E/ | D2 B A2 [EFd] | c>B A G2 B | %18
 [FA]3 F2 A | Bc d F2 [CE] |[M:5/8] D-D- D3 |] %21
V:2
 z3 z2 [D,A,] | [D,D]2 [D,D] [D,D][D,A,][D,D] | [D,A,]2 [D,B,] [D,A,]2 [D,D] | %3
 [A,EG]>[A,DG][A,CG] [A,CE]2 [A,CG] |[M:5/8][K:bass] [D,D]3 [D,A,]2 |[M:1/8] [D,A,] | %6
[M:3/4] [D,D]2 [D,D][D,D] [D,A,][D,D] | [D,A,]2 [D,B,] [D,A,]2 [D,A,] | %8
 [C,A,][F,A,] [B,,B,] [E,A,]2 [E,=G,] |[M:5/8] [A,,A,]-[A,,A,]- [A,,A,]3 | %10
[M:1/8][K:treble] [A,CG] |[M:3/4] [A,CG]2 [A,EG][A,EG] [A,DG][A,G] | [D,A,]2 [D,D] [D,D]2 [D,D] | %13
 [A,EG]>[A,DG] [A,CG] [A,CE]2 [A,CG] | D3 [A,D]2 [D,D]/-[D,G,D]/ | z2 z2 z .A, | %16
 [D,F,]2 [D,G,D] [D,F,D]2 D, | [A,EG]>[A,DG] [A,CG] [A,CE]2 [A,CG] | [D,D]3 [D,A,D]2 [D,F,D] | %19
 [G,D][G,A,D] [G,B,D] [A,D]2 [A,,G,] |[M:5/8] [D,F,]-[D,F,]- [D,F,]3 |] %21
V:3
 x6 | x6 | x6 | x6 |[M:5/8][K:bass] x5 |[M:1/8] x |[M:3/4] x6 | x6 | x6 |[M:5/8] x5 | %10
[M:1/8][K:treble] x |[M:3/4] x6 | x6 | x6 | D,4- D,.A, | [D,F,]2 [D,G,D] [D,F,D]2 [D,D]/-[D,G,D]/ | %16
 x6 | x6 | x6 | x6 |[M:5/8] x5 |] %21

